!!!COM:	Bach, Johann Sebastian
!!!CDT:	1685/02/21/-1750/07/28/
!!!OTL@@DE:	Warum betr&uuml;bst du dich, mein Herz
!!!SCT:	BWV 421
!!!PC#:	300
!!!AGN:	chorale
**kern	**kern	**kern	**kern
*ICvox	*ICvox	*ICvox	*ICvox
*Ibass	*Itenor	*Ialto	*Isoprn
*I"Bass	*I"Tenor	*I"Alto	*I"Soprano
*clefF4	*clefGv2	*clefG2	*clefG2
*k[]	*k[]	*k[]	*k[]
*a:	*a:	*a:	*a:
*M4/4	*M4/4	*M4/4	*M4/4
*met(c)	*met(c)	*met(c)	*met(c)
*MM100	*MM100	*MM100	*MM100
8AAL	8cL	4e	4a
8BBJ	8dJ	.	.
=1	=1	=1	=1
4C	4e	4.e	8aL
.	.	.	8bJ
4AA	4A	.	4cc
.	.	8a	.
4E	4B	8aL	4b
.	.	8g#J	.
4C#	4B-	4g	4ee
=2	=2	=2	=2
4D	4A	4f	4dd
4D#	4A	4f#	4cc
4E;	4G#;	4B;	4b;
4AA	4A	4e	8ccL
.	.	.	8bJ
=3	=3	=3	=3
4DnX	4A	4fnX	4a
4C	[4c	4gnX	4ee
4G	8cL]	4g	4dd
.	16BL	.	.
.	16AJJ	.	.
4E	8BL	4g	4ee
.	8c#J	.	.
=4	=4	=4	=4
8FL	4d	4f	8aL
8GJ	.	.	8bJ
4A	4A	4e	4cc#
4D;	4A;	4f;	4dd;
4AA	4A	4e	4cc
=5	=5	=5	=5
4E	4G#	4e	4b
4C	4A	8eL	4ee
.	.	8f#J	.
4BB	4B	4g#	4dd
4AA	8cL	4a	4cc
.	8dJ	.	.
=6	=6	=6	=6
2.E;	2.e;	2.g#;	2.b;
8cL	8eL	8aL	8aL
8BJ	8dJ	8g#J	8bJ
=7	=7	=7	=7
8AL	4c	4a	4cc
8GJ	.	.	.
4F	4e-	8aL	4cc
.	.	8gnXJ	.
8B-L	4d	4f	4dd
8AJ	.	.	.
4G	4g	4b-	4dd
=8	=8	=8	=8
4c	4g	4b-	4eenX
4C	8fL	8aL	4ee
.	8eJ	8gJ	.
4F;	4f;	4a;	4cc;
4C	4g	4cc	4ee
=9	=9	=9	=9
4G	8gL	4bnX	4dd
.	8fJ	.	.
4A	4e	8aL	4cc
.	.	8gJ	.
8DL	4d	8f#L	4b
8EJ	.	8g#J	.
4FnX	8cL	4a	8aL
.	8dJ	.	8bJ
=10	=10	=10	=10
8CL	4.e	4a	4cc
8DJ	.	.	.
4E	.	4g#	4b
.	8d	.	.
4AA;	4c#;	4e;	4a;
==	==	==	==
*-	*-	*-	*-
!!!hum2abc: -Q ''
!!!title: @{PC#}. @{OTL@@DE}
!!!YOR1: 371 vierstimmige Choralges&auml;nge von Johann Sebastian Bach, 
!!!YOR2: 4th ed. by Alfred D&ouml;rffel (Leipzig: Breitkopf und H&auml;rtel, 
!!!YOR2: c.1875). 178 pp. Plate "V.A.10".  reprint: J.S. Bach, 371 Four-Part 
!!!YOR4: Chorales (New York: Associated Music Publishers, Inc., c.1940).
!!!SMS: B&H, 4th ed, Alfred D&ouml;rffel, c.1875, plate V.A.10
!!!EED:  Craig Stuart Sapp
!!!EEV:  2009/05/22
